src/assets/mockups/iPhoneSE.svg

<svg width="362" height="753" viewBox="0 0 362 753" fill="none" xmlns="http://www.w3.org/2000/svg">
<path fill-rule="evenodd" clip-rule="evenodd" d="M51.8526 0.0263672C24.3615 0.0263672 2.07553 22.2786 2.07553 49.7281V94.0646C1.00146 94.4436 0.231934 95.4664 0.231934 96.6686V119.679C0.231934 120.881 1.00146 121.904 2.07553 122.283V162.174C1.00146 162.553 0.231934 163.576 0.231934 164.778V208.958C0.231934 210.16 1.00146 211.183 2.07553 211.562V228.443C1.00146 228.822 0.231934 229.845 0.231934 231.047V275.227C0.231934 276.429 1.00146 277.452 2.07553 277.831V703.214C2.07553 730.664 24.3615 752.916 51.8526 752.916H309.034C336.525 752.916 358.811 730.664 358.811 703.214V211.719C360.339 211.719 361.577 210.483 361.577 208.958V160.176C361.577 158.651 360.339 157.415 358.811 157.415V49.7281C358.811 22.2786 336.525 0.0263672 309.034 0.0263672H51.8526Z" fill="#B3B3B3"/>
<mask id="mask0_201_4884" style="mask-type:alpha" maskUnits="userSpaceOnUse" x="0" y="0" width="362" height="753">
<path fill-rule="evenodd" clip-rule="evenodd" d="M51.8526 0.0263672C24.3615 0.0263672 2.07553 22.2786 2.07553 49.7281V94.0646C1.00146 94.4436 0.231934 95.4664 0.231934 96.6686V119.679C0.231934 120.881 1.00146 121.904 2.07553 122.283V162.174C1.00146 162.553 0.231934 163.576 0.231934 164.778V208.958C0.231934 210.16 1.00146 211.183 2.07553 211.562V228.443C1.00146 228.822 0.231934 229.845 0.231934 231.047V275.227C0.231934 276.429 1.00146 277.452 2.07553 277.831V703.214C2.07553 730.664 24.3615 752.916 51.8526 752.916H309.034C336.525 752.916 358.811 730.664 358.811 703.214V211.719C360.339 211.719 361.577 210.483 361.577 208.958V160.176C361.577 158.651 360.339 157.415 358.811 157.415V49.7281C358.811 22.2786 336.525 0.0263672 309.034 0.0263672H51.8526Z" fill="#F3E1D7"/>
</mask>
<g mask="url(#mask0_201_4884)">
<g style="mix-blend-mode:overlay" opacity="0.5">
<path fill-rule="evenodd" clip-rule="evenodd" d="M50.8527 5.96973H310.147C333.826 5.96973 353.022 25.1361 353.022 48.779V703.369C353.022 727.012 333.826 746.178 310.147 746.178H50.8527C27.1739 746.178 7.97852 727.012 7.97852 703.369V48.779C7.97852 25.1361 27.1739 5.96973 50.8527 5.96973ZM50.8527 6.8225C27.6456 6.8225 8.83258 25.6071 8.83258 48.779V703.369C8.83258 726.541 27.6456 745.325 50.8527 745.325H310.147C333.354 745.325 352.168 726.541 352.168 703.369V48.779C352.168 25.6071 333.354 6.8225 310.147 6.8225H50.8527Z" fill="url(#paint0_linear_201_4884)"/>
</g>
<g style="mix-blend-mode:overlay" opacity="0.4">
<path fill-rule="evenodd" clip-rule="evenodd" d="M50.8527 5.96973H310.147C333.826 5.96973 353.022 25.1361 353.022 48.779V703.369C353.022 727.012 333.826 746.178 310.147 746.178H50.8527C27.1739 746.178 7.97852 727.012 7.97852 703.369V48.779C7.97852 25.1361 27.1739 5.96973 50.8527 5.96973ZM50.8527 6.8225C27.6456 6.8225 8.83258 25.6071 8.83258 48.779V703.369C8.83258 726.541 27.6456 745.325 50.8527 745.325H310.147C333.354 745.325 352.168 726.541 352.168 703.369V48.779C352.168 25.6071 333.354 6.8225 310.147 6.8225H50.8527Z" fill="url(#paint1_radial_201_4884)"/>
</g>
</g>
<g style="mix-blend-mode:overlay">
<path d="M358.811 157.416C360.338 157.416 361.576 158.652 361.576 160.177V208.958C361.576 210.483 360.338 211.719 358.811 211.719V157.416Z" fill="url(#paint2_linear_201_4884)" fill-opacity="0.3"/>
<path d="M358.811 157.416C360.338 157.416 361.576 158.652 361.576 160.177V208.958C361.576 210.483 360.338 211.719 358.811 211.719V157.416Z" fill="url(#paint3_linear_201_4884)" fill-opacity="0.3"/>
<path fill-rule="evenodd" clip-rule="evenodd" d="M2.07553 228.443C1.00149 228.822 0.231934 229.845 0.231934 231.047V275.227C0.231934 276.429 1.00149 277.452 2.07553 277.831V228.443Z" fill="url(#paint4_linear_201_4884)" fill-opacity="0.3"/>
<path fill-rule="evenodd" clip-rule="evenodd" d="M2.07553 228.443C1.00149 228.822 0.231934 229.845 0.231934 231.047V275.227C0.231934 276.429 1.00149 277.452 2.07553 277.831V228.443Z" fill="url(#paint5_linear_201_4884)" fill-opacity="0.3"/>
<path fill-rule="evenodd" clip-rule="evenodd" d="M2.07553 162.176C1.00149 162.555 0.231934 163.578 0.231934 164.78V208.96C0.231934 210.162 1.00149 211.185 2.07553 211.564V162.176Z" fill="url(#paint6_linear_201_4884)" fill-opacity="0.3"/>
<path fill-rule="evenodd" clip-rule="evenodd" d="M2.07553 162.176C1.00149 162.555 0.231934 163.578 0.231934 164.78V208.96C0.231934 210.162 1.00149 211.185 2.07553 211.564V162.176Z" fill="url(#paint7_linear_201_4884)" fill-opacity="0.3"/>
<path fill-rule="evenodd" clip-rule="evenodd" d="M2.07553 94.0615C1.00149 94.4405 0.231934 95.4634 0.231934 96.6656V119.676C0.231934 120.878 1.00149 121.901 2.07553 122.28V94.0615Z" fill="url(#paint8_linear_201_4884)" fill-opacity="0.3"/>
<path fill-rule="evenodd" clip-rule="evenodd" d="M2.07553 94.0615C1.00149 94.4405 0.231934 95.4634 0.231934 96.6656V119.676C0.231934 120.878 1.00149 121.901 2.07553 122.28V94.0615Z" fill="url(#paint9_linear_201_4884)" fill-opacity="0.3"/>
</g>
<g style="mix-blend-mode:multiply" opacity="0.1">
<ellipse cx="180.443" cy="705.515" rx="29.0366" ry="28.9927" fill="url(#paint10_linear_201_4884)"/>
</g>
<g style="mix-blend-mode:overlay">
<path fill-rule="evenodd" clip-rule="evenodd" d="M161.867 724.063C172.126 734.307 188.76 734.307 199.02 724.063C209.28 713.819 209.279 697.211 199.02 686.967C188.76 676.723 172.126 676.723 161.867 686.967C151.607 697.211 151.607 713.819 161.867 724.063ZM159.911 726.016C171.251 737.338 189.636 737.338 200.975 726.016C212.315 714.694 212.315 696.336 200.975 685.014C189.636 673.692 171.251 673.692 159.911 685.014C148.572 696.336 148.572 714.694 159.911 726.016Z" fill="url(#paint11_linear_201_4884)"/>
</g>
<g style="mix-blend-mode:multiply" opacity="0.2">
<path d="M150.485 48.7502C150.485 47.2291 151.72 45.9961 153.243 45.9961H208.408C209.931 45.9961 211.166 47.2291 211.166 48.7502C211.166 50.2712 209.931 51.5042 208.408 51.5042H153.243C151.72 51.5042 150.485 50.2712 150.485 48.7502Z" fill="url(#paint12_linear_201_4884)"/>
</g>
<g style="mix-blend-mode:overlay">
<path fill-rule="evenodd" clip-rule="evenodd" d="M208.408 46.9165H153.243C152.229 46.9165 151.407 47.7375 151.407 48.7502C151.407 49.7629 152.229 50.5838 153.243 50.5838H208.408C209.422 50.5838 210.244 49.7629 210.244 48.7502C210.244 47.7375 209.422 46.9165 208.408 46.9165ZM153.243 45.9961C151.72 45.9961 150.485 47.2291 150.485 48.7502C150.485 50.2712 151.72 51.5042 153.243 51.5042H208.408C209.931 51.5042 211.166 50.2712 211.166 48.7502C211.166 47.2291 209.931 45.9961 208.408 45.9961H153.243Z" fill="url(#paint13_linear_201_4884)"/>
</g>
<g style="mix-blend-mode:multiply" opacity="0.2">
<path d="M130.17 48.7504C130.17 52.553 127.082 55.6356 123.274 55.6356C119.466 55.6356 116.378 52.553 116.378 48.7504C116.378 44.9478 119.466 41.8652 123.274 41.8652C127.082 41.8652 130.17 44.9478 130.17 48.7504Z" fill="url(#paint14_linear_201_4884)"/>
</g>
<g style="mix-blend-mode:overlay">
<path fill-rule="evenodd" clip-rule="evenodd" d="M123.274 54.7152C126.573 54.7152 129.248 52.0447 129.248 48.7504C129.248 45.4562 126.573 42.7856 123.274 42.7856C119.975 42.7856 117.3 45.4562 117.3 48.7504C117.3 52.0447 119.975 54.7152 123.274 54.7152ZM123.274 55.6356C127.082 55.6356 130.17 52.553 130.17 48.7504C130.17 44.9478 127.082 41.8652 123.274 41.8652C119.466 41.8652 116.378 44.9478 116.378 48.7504C116.378 52.553 119.466 55.6356 123.274 55.6356Z" fill="url(#paint15_linear_201_4884)"/>
</g>
<clipPath id="clipPath">
<rect x="20" y="92" width="322" height="570" rx="5" fill="white"/>
<rect x="20" y="92" width="322" height="570" rx="5" stroke="#181818" stroke-width="2" style="mix-blend-mode:overlay"/>
</clipPath>
<defs>
<linearGradient id="paint0_linear_201_4884" x1="185.648" y1="164.039" x2="353.205" y2="135.826" gradientUnits="userSpaceOnUse">
<stop stop-color="#636363" stop-opacity="0"/>
<stop offset="1"/>
</linearGradient>
<radialGradient id="paint1_radial_201_4884" cx="0" cy="0" r="1" gradientUnits="userSpaceOnUse" gradientTransform="translate(353.022 134.466) rotate(155.975) scale(361.987 805.839)">
<stop stop-color="#636363"/>
<stop offset="1"/>
</radialGradient>
<linearGradient id="paint2_linear_201_4884" x1="358.811" y1="173.69" x2="361.577" y2="173.69" gradientUnits="userSpaceOnUse">
<stop/>
<stop offset="1" stop-color="#787878" stop-opacity="0.4"/>
</linearGradient>
<linearGradient id="paint3_linear_201_4884" x1="360.194" y1="157.416" x2="360.194" y2="211.719" gradientUnits="userSpaceOnUse">
<stop/>
<stop offset="0.10159" stop-opacity="0"/>
<stop offset="0.890418" stop-opacity="0"/>
<stop offset="1"/>
</linearGradient>
<linearGradient id="paint4_linear_201_4884" x1="2.71477" y1="246.228" x2="0.231934" y2="246.228" gradientUnits="userSpaceOnUse">
<stop/>
<stop offset="1" stop-color="#787878" stop-opacity="0.4"/>
</linearGradient>
<linearGradient id="paint5_linear_201_4884" x1="1.15373" y1="228.443" x2="1.15373" y2="277.831" gradientUnits="userSpaceOnUse">
<stop/>
<stop offset="0.10159" stop-opacity="0"/>
<stop offset="0.890418" stop-opacity="0"/>
<stop offset="1"/>
</linearGradient>
<linearGradient id="paint6_linear_201_4884" x1="2.71477" y1="179.961" x2="0.231934" y2="179.961" gradientUnits="userSpaceOnUse">
<stop/>
<stop offset="1" stop-color="#787878" stop-opacity="0.4"/>
</linearGradient>
<linearGradient id="paint7_linear_201_4884" x1="1.15373" y1="162.176" x2="1.15373" y2="211.564" gradientUnits="userSpaceOnUse">
<stop/>
<stop offset="0.10159" stop-opacity="0"/>
<stop offset="0.890418" stop-opacity="0"/>
<stop offset="1"/>
</linearGradient>
<linearGradient id="paint8_linear_201_4884" x1="2.71477" y1="104.223" x2="0.231934" y2="104.223" gradientUnits="userSpaceOnUse">
<stop/>
<stop offset="1" stop-color="#787878" stop-opacity="0.4"/>
</linearGradient>
<linearGradient id="paint9_linear_201_4884" x1="1.15373" y1="94.0615" x2="1.15373" y2="122.28" gradientUnits="userSpaceOnUse">
<stop/>
<stop offset="0.10159" stop-opacity="0"/>
<stop offset="0.890418" stop-opacity="0"/>
<stop offset="1"/>
</linearGradient>
<linearGradient id="paint10_linear_201_4884" x1="196.3" y1="676.25" x2="148.145" y2="747.098" gradientUnits="userSpaceOnUse">
<stop stop-color="#2B2B2B"/>
<stop offset="1" stop-color="#2B2B2B" stop-opacity="0"/>
</linearGradient>
<linearGradient id="paint11_linear_201_4884" x1="209.111" y1="678.809" x2="162.637" y2="726.691" gradientUnits="userSpaceOnUse">
<stop stop-color="#0B0B0B"/>
<stop offset="1" stop-color="#CDCDCD" stop-opacity="0.48"/>
</linearGradient>
<linearGradient id="paint12_linear_201_4884" x1="180.842" y1="46.0498" x2="180.502" y2="56.2827" gradientUnits="userSpaceOnUse">
<stop/>
<stop offset="1" stop-color="#A3A3A3"/>
</linearGradient>
<linearGradient id="paint13_linear_201_4884" x1="177.678" y1="51.5042" x2="177.678" y2="45.9961" gradientUnits="userSpaceOnUse">
<stop/>
<stop offset="1" stop-color="white" stop-opacity="0.33"/>
</linearGradient>
<linearGradient id="paint14_linear_201_4884" x1="123.278" y1="41.9995" x2="115.021" y2="64.5926" gradientUnits="userSpaceOnUse">
<stop/>
<stop offset="1" stop-color="#A3A3A3"/>
</linearGradient>
<linearGradient id="paint15_linear_201_4884" x1="122.559" y1="55.6356" x2="122.559" y2="41.8652" gradientUnits="userSpaceOnUse">
<stop/>
<stop offset="1" stop-color="white" stop-opacity="0.49"/>
</linearGradient>
</defs>
</svg>

<svg id="svg817" fill="none" version="1.1" width="422" height="881" viewBox="0 0 422.83 881" xmlns="http://www.w3.org/2000/svg">
 <path id="path658" d="m60.404 0c-32.169 0-58.247 26.039-58.247 58.159v51.881c-1.2568 0.44347-2.1573 1.6403-2.1573 3.0471v26.926c0 1.4066 0.90047 2.6036 2.1573 3.0471v46.679c-1.2568 0.44349-2.1573 1.6406-2.1573 3.0471v51.698c0 1.4066 0.90047 2.6036 2.1573 3.0471v19.753c-1.2568 0.44349-2.1573 1.6406-2.1573 3.0471v51.698c0 1.4065 0.90047 2.6036 2.1573 3.0471v497.77c0 32.121 26.078 58.159 58.247 58.159h300.94c32.169 0 58.247-26.038 58.247-58.159v-575.13c1.788 0 3.2366-1.4463 3.2366-3.2308v-57.083c0-1.7845-1.4487-3.2308-3.2366-3.2308v-126.01c0-32.12-26.078-58.159-58.247-58.159z" clip-rule="evenodd" fill="#b3b3b3" fill-rule="evenodd" stroke-width="1.1702"/>
 <mask id="mask0_201_4884" x="0" y="0" width="362" height="753" maskUnits="userSpaceOnUse">
  <path id="path660" d="m51.853 0.026367c-27.491 0-49.777 22.252-49.777 49.702v44.336c-1.0741 0.379-1.8436 1.4018-1.8436 2.604v23.01c0 1.202 0.76953 2.225 1.8436 2.604v39.891c-1.0741 0.379-1.8436 1.402-1.8436 2.604v44.18c0 1.202 0.76953 2.225 1.8436 2.604v16.881c-1.0741 0.379-1.8436 1.402-1.8436 2.604v44.18c0 1.202 0.76953 2.225 1.8436 2.604v425.38c0 27.45 22.286 49.702 49.777 49.702h257.18c27.491 0 49.777-22.252 49.777-49.702v-491.5c1.528 0 2.766-1.236 2.766-2.761v-48.782c0-1.525-1.238-2.761-2.766-2.761v-107.69c0-27.45-22.286-49.702-49.777-49.702z" clip-rule="evenodd" fill="#f3e1d7" fill-rule="evenodd"/>
 </mask>
 <g id="g671" transform="matrix(1.1702 0 0 1.1702 -.2714 -.03086)" mask="url(#mask0_201_4884)">
  <g id="g665" opacity=".5" style="mix-blend-mode:overlay">
   <path id="path663" d="m50.853 5.9697h259.29c23.679 0 42.875 19.166 42.875 42.809v654.59c0 23.643-19.196 42.809-42.875 42.809h-259.29c-23.679 0-42.874-19.166-42.874-42.809v-654.59c0-23.643 19.195-42.809 42.874-42.809zm0 0.85277c-23.207 0-42.02 18.785-42.02 41.956v654.59c0 23.172 18.813 41.956 42.02 41.956h259.29c23.207 0 42.021-18.784 42.021-41.956v-654.59c0-23.172-18.814-41.956-42.021-41.956z" clip-rule="evenodd" fill="url(#paint0_linear_201_4884)" fill-rule="evenodd"/>
  </g>
  <g id="g669" opacity=".4" style="mix-blend-mode:overlay">
   <path id="path667" d="m50.853 5.9697h259.29c23.679 0 42.875 19.166 42.875 42.809v654.59c0 23.643-19.196 42.809-42.875 42.809h-259.29c-23.679 0-42.874-19.166-42.874-42.809v-654.59c0-23.643 19.195-42.809 42.874-42.809zm0 0.85277c-23.207 0-42.02 18.785-42.02 41.956v654.59c0 23.172 18.813 41.956 42.02 41.956h259.29c23.207 0 42.021-18.784 42.021-41.956v-654.59c0-23.172-18.814-41.956-42.021-41.956z" clip-rule="evenodd" fill="url(#paint1_radial_201_4884)" fill-rule="evenodd"/>
  </g>
 </g>
 <g id="g689" transform="matrix(1.1702 0 0 1.1702 -.2714 -.03086)" fill-opacity=".3" style="mix-blend-mode:overlay">
  <path id="path673" d="m358.81 157.42c1.527 0 2.765 1.236 2.765 2.761v48.781c0 1.525-1.238 2.761-2.765 2.761z" fill="url(#paint2_linear_201_4884)"/>
  <path id="path675" d="m358.81 157.42c1.527 0 2.765 1.236 2.765 2.761v48.781c0 1.525-1.238 2.761-2.765 2.761z" fill="url(#paint3_linear_201_4884)"/>
  <g clip-rule="evenodd" fill-rule="evenodd">
   <path id="path677" d="m2.0755 228.44c-1.074 0.379-1.8436 1.402-1.8436 2.604v44.18c0 1.202 0.76956 2.225 1.8436 2.604z" fill="url(#paint4_linear_201_4884)"/>
   <path id="path679" d="m2.0755 228.44c-1.074 0.379-1.8436 1.402-1.8436 2.604v44.18c0 1.202 0.76956 2.225 1.8436 2.604z" fill="url(#paint5_linear_201_4884)"/>
   <path id="path681" d="m2.0755 162.18c-1.074 0.379-1.8436 1.402-1.8436 2.604v44.18c0 1.202 0.76956 2.225 1.8436 2.604z" fill="url(#paint6_linear_201_4884)"/>
   <path id="path683" d="m2.0755 162.18c-1.074 0.379-1.8436 1.402-1.8436 2.604v44.18c0 1.202 0.76956 2.225 1.8436 2.604z" fill="url(#paint7_linear_201_4884)"/>
   <path id="path685" d="m2.0755 94.062c-1.074 0.379-1.8436 1.4019-1.8436 2.6041v23.01c0 1.202 0.76956 2.225 1.8436 2.604z" fill="url(#paint8_linear_201_4884)"/>
   <path id="path687" d="m2.0755 94.062c-1.074 0.379-1.8436 1.4019-1.8436 2.6041v23.01c0 1.202 0.76956 2.225 1.8436 2.604z" fill="url(#paint9_linear_201_4884)"/>
  </g>
 </g>
 <g id="g693" transform="matrix(1.1702 0 0 1.1702 -.2714 -.03086)" opacity=".1" style="mix-blend-mode:multiply">
  <ellipse id="ellipse691" cx="180.44" cy="705.52" rx="29.037" ry="28.993" fill="url(#paint10_linear_201_4884)"/>
 </g>
 <g id="g697" transform="matrix(1.1702 0 0 1.1702 -.2714 -.03086)" style="mix-blend-mode:overlay">
  <path id="path695" d="m161.87 724.06c10.259 10.244 26.893 10.244 37.153 0s10.259-26.852 0-37.096c-10.26-10.244-26.894-10.244-37.153 0-10.26 10.244-10.26 26.852 0 37.096zm-1.956 1.953c11.34 11.322 29.725 11.322 41.064 0 11.34-11.322 11.34-29.68 0-41.002-11.339-11.322-29.724-11.322-41.064 0-11.339 11.322-11.339 29.68 0 41.002z" clip-rule="evenodd" fill="url(#paint11_linear_201_4884)" fill-rule="evenodd"/>
 </g>
 <g id="g701" transform="matrix(1.1702 0 0 1.1702 -.2714 -.03086)" opacity=".2" style="mix-blend-mode:multiply">
  <path id="path699" d="m150.48 48.75c0-1.5211 1.235-2.7541 2.758-2.7541h55.165c1.523 0 2.758 1.233 2.758 2.7541 0 1.521-1.235 2.754-2.758 2.754h-55.165c-1.523 0-2.758-1.233-2.758-2.754z" fill="url(#paint12_linear_201_4884)"/>
 </g>
 <g id="g705" transform="matrix(1.1702 0 0 1.1702 -.2714 -.03086)" style="mix-blend-mode:overlay">
  <path id="path703" d="m208.41 46.916h-55.165c-1.014 0-1.836 0.821-1.836 1.8337s0.822 1.8336 1.836 1.8336h55.165c1.014 0 1.836-0.8209 1.836-1.8336s-0.822-1.8337-1.836-1.8337zm-55.165-0.9204c-1.523 0-2.758 1.233-2.758 2.7541 0 1.521 1.235 2.754 2.758 2.754h55.165c1.523 0 2.758-1.233 2.758-2.754 0-1.5211-1.235-2.7541-2.758-2.7541z" clip-rule="evenodd" fill="url(#paint13_linear_201_4884)" fill-rule="evenodd"/>
 </g>
 <g id="g709" transform="matrix(1.1702 0 0 1.1702 -.2714 -.03086)" opacity=".2" style="mix-blend-mode:multiply">
  <path id="path707" d="m130.17 48.75c0 3.8026-3.088 6.8852-6.896 6.8852s-6.896-3.0826-6.896-6.8852 3.088-6.8852 6.896-6.8852 6.896 3.0826 6.896 6.8852z" fill="url(#paint14_linear_201_4884)"/>
 </g>
 <g id="g713" transform="matrix(1.1702 0 0 1.1702 -.2714 -.03086)" style="mix-blend-mode:overlay">
  <path id="path711" d="m123.27 54.715c3.299 0 5.974-2.6705 5.974-5.9648 0-3.2942-2.675-5.9648-5.974-5.9648s-5.974 2.6706-5.974 5.9648c0 3.2943 2.675 5.9648 5.974 5.9648zm0 0.9204c3.808 0 6.896-3.0826 6.896-6.8852s-3.088-6.8852-6.896-6.8852-6.896 3.0826-6.896 6.8852 3.088 6.8852 6.896 6.8852z" clip-rule="evenodd" fill="url(#paint15_linear_201_4884)" fill-rule="evenodd"/>
 </g>
 <clipPath id="clipPath">
  <rect id="rect715" x="23.998" y="110.72" width="375" height="667" rx="5.823" fill="#fff" stroke-width="1.1674"/>
  <rect id="rect717" x="23.34" y="109.96" width="376.58" height="668.91" rx="5.8475" stroke="#181818" stroke-width="2.343" style="mix-blend-mode:overlay"/>
 </clipPath>
 <defs id="defs815">
  <linearGradient id="paint0_linear_201_4884" x1="185.65" x2="353.2" y1="164.04" y2="135.83" gradientUnits="userSpaceOnUse">
   <stop id="stop719" stop-color="#636363" stop-opacity="0" offset="0"/>
   <stop id="stop721" offset="1"/>
  </linearGradient>
  <radialGradient id="paint1_radial_201_4884" cx="0" cy="0" r="1" gradientTransform="matrix(-330.63 147.38 -328.09 -736.03 353.02 134.47)" gradientUnits="userSpaceOnUse">
   <stop id="stop724" stop-color="#636363" offset="0"/>
   <stop id="stop726" offset="1"/>
  </radialGradient>
  <linearGradient id="paint2_linear_201_4884" x1="358.81" x2="361.58" y1="173.69" y2="173.69" gradientUnits="userSpaceOnUse">
   <stop id="stop729" offset="0"/>
   <stop id="stop731" stop-color="#787878" stop-opacity=".4" offset="1"/>
  </linearGradient>
  <linearGradient id="paint3_linear_201_4884" x1="360.19" x2="360.19" y1="157.42" y2="211.72" gradientUnits="userSpaceOnUse">
   <stop id="stop734" offset="0"/>
   <stop id="stop736" stop-opacity="0" offset=".10159"/>
   <stop id="stop738" stop-opacity="0" offset=".89042"/>
   <stop id="stop740" offset="1"/>
  </linearGradient>
  <linearGradient id="paint4_linear_201_4884" x1="2.7148" x2=".23193" y1="246.23" y2="246.23" gradientUnits="userSpaceOnUse">
   <stop id="stop743" offset="0"/>
   <stop id="stop745" stop-color="#787878" stop-opacity=".4" offset="1"/>
  </linearGradient>
  <linearGradient id="paint5_linear_201_4884" x1="1.1537" x2="1.1537" y1="228.44" y2="277.83" gradientUnits="userSpaceOnUse">
   <stop id="stop748" offset="0"/>
   <stop id="stop750" stop-opacity="0" offset=".10159"/>
   <stop id="stop752" stop-opacity="0" offset=".89042"/>
   <stop id="stop754" offset="1"/>
  </linearGradient>
  <linearGradient id="paint6_linear_201_4884" x1="2.7148" x2=".23193" y1="179.96" y2="179.96" gradientUnits="userSpaceOnUse">
   <stop id="stop757" offset="0"/>
   <stop id="stop759" stop-color="#787878" stop-opacity=".4" offset="1"/>
  </linearGradient>
  <linearGradient id="paint7_linear_201_4884" x1="1.1537" x2="1.1537" y1="162.18" y2="211.56" gradientUnits="userSpaceOnUse">
   <stop id="stop762" offset="0"/>
   <stop id="stop764" stop-opacity="0" offset=".10159"/>
   <stop id="stop766" stop-opacity="0" offset=".89042"/>
   <stop id="stop768" offset="1"/>
  </linearGradient>
  <linearGradient id="paint8_linear_201_4884" x1="2.7148" x2=".23193" y1="104.22" y2="104.22" gradientUnits="userSpaceOnUse">
   <stop id="stop771" offset="0"/>
   <stop id="stop773" stop-color="#787878" stop-opacity=".4" offset="1"/>
  </linearGradient>
  <linearGradient id="paint9_linear_201_4884" x1="1.1537" x2="1.1537" y1="94.062" y2="122.28" gradientUnits="userSpaceOnUse">
   <stop id="stop776" offset="0"/>
   <stop id="stop778" stop-opacity="0" offset=".10159"/>
   <stop id="stop780" stop-opacity="0" offset=".89042"/>
   <stop id="stop782" offset="1"/>
  </linearGradient>
  <linearGradient id="paint10_linear_201_4884" x1="196.3" x2="148.14" y1="676.25" y2="747.1" gradientUnits="userSpaceOnUse">
   <stop id="stop785" stop-color="#2B2B2B" offset="0"/>
   <stop id="stop787" stop-color="#2B2B2B" stop-opacity="0" offset="1"/>
  </linearGradient>
  <linearGradient id="paint11_linear_201_4884" x1="209.11" x2="162.64" y1="678.81" y2="726.69" gradientUnits="userSpaceOnUse">
   <stop id="stop790" stop-color="#0B0B0B" offset="0"/>
   <stop id="stop792" stop-color="#CDCDCD" stop-opacity=".48" offset="1"/>
  </linearGradient>
  <linearGradient id="paint12_linear_201_4884" x1="180.84" x2="180.5" y1="46.05" y2="56.283" gradientUnits="userSpaceOnUse">
   <stop id="stop795" offset="0"/>
   <stop id="stop797" stop-color="#A3A3A3" offset="1"/>
  </linearGradient>
  <linearGradient id="paint13_linear_201_4884" x1="177.68" x2="177.68" y1="51.504" y2="45.996" gradientUnits="userSpaceOnUse">
   <stop id="stop800" offset="0"/>
   <stop id="stop802" stop-color="#fff" stop-opacity=".33" offset="1"/>
  </linearGradient>
  <linearGradient id="paint14_linear_201_4884" x1="123.28" x2="115.02" y1="42" y2="64.593" gradientUnits="userSpaceOnUse">
   <stop id="stop805" offset="0"/>
   <stop id="stop807" stop-color="#A3A3A3" offset="1"/>
  </linearGradient>
  <linearGradient id="paint15_linear_201_4884" x1="122.56" x2="122.56" y1="55.636" y2="41.865" gradientUnits="userSpaceOnUse">
   <stop id="stop810" offset="0"/>
   <stop id="stop812" stop-color="#fff" stop-opacity=".49" offset="1"/>
  </linearGradient>
 </defs>
</svg>
